X:267
T:Lad O'Bernie's
R:reel
Z:Svante Kvarnström
M:4/4
L:1/8
K:F
d2cA dAcA | GcAF GFDF | CFF2 CFAc | d3e fagf |
d2cA dAcA | GcAF GFDF | CFAF DFBd |1 cbag fgfe :|2 cbag f2fg ||
a2gf afgf | dgfd cBAB | c2cd cdfa | g2ga g2fg |
aff2 afgf | dgfd cBAB | c2cd cdfa | gfga f3g |
aff2 afgf | dgfd cBAB | c2cd cdfa | g2ga bagf |
a3g f3e  | defd cAFD | CFAF DFBd | cbag fgfe |]
